alarm-snooze.svg

<svg fill="currentColor" viewBox="0 0 24 24"><path d="M7.88 3.39 6.6 1.86 2 5.71l1.29 1.53zM22 5.72l-4.6-3.86-1.29 1.53 4.6 3.86zM12 4a9 9 0 0 0-9 9 9 9 0 0 0 9 9 9 9 0 0 0 9-9 9 9 0 0 0-9-9m0 16a7 7 0 0 1-7-7 7 7 0 0 1 7-7 7 7 0 0 1 7 7 7 7 0 0 1-7 7m-3-9h3.63L9 15.2V17h6v-2h-3.63L15 10.8V9H9z"/></svg>

<svg  viewBox="0 0 24 24" fill="currentColor"><path  d="M7.88,3.39L6.6,1.86L2,5.71L3.29,7.24L7.88,3.39M22,5.72L17.4,1.86L16.11,3.39L20.71,7.25L22,5.72M12,4A9,9 0 0,0 3,13A9,9 0 0,0 12,22A9,9 0 0,0 21,13A9,9 0 0,0 12,4M12,20A7,7 0 0,1 5,13A7,7 0 0,1 12,6A7,7 0 0,1 19,13A7,7 0 0,1 12,20M9,11H12.63L9,15.2V17H15V15H11.37L15,10.8V9H9V11Z"/></svg>
